X:120
T:The Thrashing of the Oats
B:Terry "Cuz" Teahan "Sliabh Luachra on Parade" 1980
Z:Patrick Cavanagh
M:2/4
L:1/8
R:Polka
K:G
| G2 AB | cA dB | G2 AB | cA FD | 
G2AB | cA de | fd cA | BG G2 :| 
| g2 ag | fd de | fd de | fe fd | 
g2 ag | fd de | fd cA | BG G2 :|| 

